X:1
T: Blink Bonnie
C:J. Scott Skinner
R:Reel
I:speed 232
K:D
M:4/4
L:1/8
|:g|fd ec d2A=c|BG AF GE EG|FD GE AB cd|A1/2A1/2A GE FD Dg|
fd ec d1/2d1/2d A=c|Bd AF GE EG|FA GB AB cd|A1/2A1/2 Ag ef dd:|
|:g|fg af b2 gf|ef ge a2 fd|((3Bcd) ef gf ed|ce dB cA A=c|
B1/2B1/2B dg A1/2A1/2A df|ge cA GE CE|DF Ad FA df|ge ag fd d:|
